app/dist/common/images/the-growth-for-good-acquisition.svg

<svg height="18" viewBox="0 0 18 18" width="18" xmlns="http://www.w3.org/2000/svg"><path d="m0 0h18v18h-18z" fill="#f0f3fa"/><path d="m11 12.33a3.33 3.33 0 1 1 2.67-5.33h.8a4 4 0 1 0 .53 2h-5.67v.67h4.94a3.33 3.33 0 0 1 -3.27 2.66z" fill="#166957"/><path d="m7 12.33a3.33 3.33 0 1 0 -2.67-5.33h-.8a4 4 0 1 1 -.53 2h5.67v.67h-4.94a3.33 3.33 0 0 0 3.27 2.66z" fill="#98c17d"/></svg>

<!-- by TradingView --><svg width="18" height="18" viewBox="0 0 18 18" xmlns="http://www.w3.org/2000/svg"><path fill="#F0F3FA" d="M0 0h18v18H0z"/><path d="M11 12.33A3.33 3.33 0 1 1 13.67 7h.8A4 4 0 1 0 15 9H9.33v.67h4.94A3.33 3.33 0 0 1 11 12.33Z" fill="#166957"/><path d="M7 12.33A3.33 3.33 0 1 0 4.33 7h-.8A4 4 0 1 1 3 9h5.67v.67H3.73A3.33 3.33 0 0 0 7 12.33Z" fill="#98C17D"/></svg>
